material/.icons/material/mirror.svg

<svg xmlns="http://www.w3.org/2000/svg" viewBox="0 0 24 24"><path d="M12 1c4.69 0 8.5 4.93 8.5 11 0 6.08-3.81 11-8.5 11-4.69 0-8.5-4.92-8.5-11C3.5 5.93 7.31 1 12 1m0 2c-3.59 0-6.5 4.03-6.5 9s2.91 9 6.5 9 6.5-4.03 6.5-9-2.91-9-6.5-9m-3.71 7.28l3.24-3.25 1.06 1.06-3.24 3.25-1.06-1.06m.41 4.33l5.66-5.66L15.42 10l-5.66 5.67-1.06-1.06z"/></svg>

<?xml version="1.0" encoding="UTF-8"?><!DOCTYPE svg PUBLIC "-//W3C//DTD SVG 1.1//EN" "http://www.w3.org/Graphics/SVG/1.1/DTD/svg11.dtd"><svg xmlns="http://www.w3.org/2000/svg" xmlns:xlink="http://www.w3.org/1999/xlink" version="1.1" id="mdi-mirror" width="24" height="24" viewBox="0 0 24 24"><path d="M12 1C16.69 1 20.5 5.93 20.5 12C20.5 18.08 16.69 23 12 23C7.31 23 3.5 18.08 3.5 12C3.5 5.93 7.31 1 12 1M12 3C8.41 3 5.5 7.03 5.5 12C5.5 16.97 8.41 21 12 21C15.59 21 18.5 16.97 18.5 12C18.5 7.03 15.59 3 12 3M8.29 10.28L11.53 7.03L12.59 8.09L9.35 11.34L8.29 10.28M8.7 14.61L14.36 8.95L15.42 10L9.76 15.67L8.7 14.61Z" /></svg>
